src/home/img/model-instant.svg

<svg height="79" viewBox="0 0 82 79" width="82" xmlns="http://www.w3.org/2000/svg" xmlns:xlink="http://www.w3.org/1999/xlink"><linearGradient id="a" x1="50%" x2="50%" y1="0%" y2="100%"><stop offset="0" stop-color="#3f6abc"/><stop offset="1" stop-color="#1851be"/></linearGradient><filter id="b" height="107.4%" width="107.4%" x="-3.7%" y="-3.7%"><feGaussianBlur in="SourceGraphic" stdDeviation=".65"/></filter><radialGradient id="c" cx="61.859%" cy="4.703%" r="100%"><stop offset="0" stop-color="#fff"/><stop offset="1" stop-color="#aec3eb"/></radialGradient><mask id="d" fill="#fff"><path d="m.5 13.84c0-7.367 5.973-13.34 13.34-13.34h48.32c7.367 0 13.34 5.973 13.34 13.34v48.32c0 7.367-5.973 13.34-13.34 13.34h-48.32c-7.367 0-13.34-5.973-13.34-13.34z" fill="#fff" fill-rule="evenodd"/></mask><g fill="none" fill-rule="evenodd" transform="translate(1)"><g transform="translate(0 2)"><path d="m.5 13.84c0-7.367 5.973-13.34 13.34-13.34h48.32c7.367 0 13.34 5.973 13.34 13.34v48.32c0 7.367-5.973 13.34-13.34 13.34h-48.32c-7.367 0-13.34-5.973-13.34-13.34z" mask="url(#d)"/><path d="m.5 13.84c0-7.367 5.973-13.34 13.34-13.34h48.32c7.367 0 13.34 5.973 13.34 13.34v48.32c0 7.367-5.973 13.34-13.34 13.34h-48.32c-7.367 0-13.34-5.973-13.34-13.34z"/><path d="m.5 13.84c0-7.367 5.973-13.34 13.34-13.34h48.32c7.367 0 13.34 5.973 13.34 13.34v48.32c0 7.367-5.973 13.34-13.34 13.34h-48.32c-7.367 0-13.34-5.973-13.34-13.34z"/><g fill="url(#a)" fill-rule="nonzero" stroke="#fff" stroke-opacity=".01" stroke-width="1.68"><path d="m.5 13.84c0-7.367 5.973-13.34 13.34-13.34h48.32c7.367 0 13.34 5.973 13.34 13.34v48.32c0 7.367-5.973 13.34-13.34 13.34h-48.32c-7.367 0-13.34-5.973-13.34-13.34z" filter="url(#b)"/><path d="m.5 13.84c0-7.367 5.973-13.34 13.34-13.34h48.32c7.367 0 13.34 5.973 13.34 13.34v48.32c0 7.367-5.973 13.34-13.34 13.34h-48.32c-7.367 0-13.34-5.973-13.34-13.34z"/></g></g><path d="m64.90625 58c1.1563462 0 2.09375 1.0073593 2.09375 2.25v4.5c0 1.2426407-.9374038 2.25-2.09375 2.25h-62.8125c-1.15634619 0-2.09375-1.0073593-2.09375-2.25v-4.5c0-1.2426407.93740381-2.25 2.09375-2.25zm-10.15625-58-7.4773437 22.3331731c-.6583524 1.9660207-.5690341 4.1041936.2510156 6.0090144l11.4763281 26.6578125h-27.625l2.125-4.2307692 8.5-4.2307693-8.5-4.2307692-4.25-8.4615385-4.25 8.4615385-8.5 4.2307692 8.5 4.2307693 2.125 4.2307692h-19.125l14.7421875-33.0079327c1.4686342-3.2919821 3.9541157-6.0316114 7.0948438-7.8203125zm-19.125 16.9230769-2.125 4.2307693-4.25 2.1153846 4.25 2.1153846 2.125 4.2307692 2.125-4.2307692 4.25-2.1153846-4.25-2.1153846z" fill="url(#c)" fill-rule="nonzero" transform="translate(14)"/></g></svg>

<svg xmlns="http://www.w3.org/2000/svg" xmlns:xlink="http://www.w3.org/1999/xlink" width="82" height="79" viewBox="0 0 82 79">
  <defs>
    <path id="model-instant-a" d="M0.5,13.84 C0.5,6.473 6.473,0.5 13.84,0.5 L62.16,0.5 C69.527,0.5 75.5,6.473 75.5,13.84 L75.5,62.16 C75.5,69.527 69.527,75.5 62.16,75.5 L13.84,75.5 C6.473,75.5 0.5,69.527 0.5,62.16 L0.5,13.84 Z"/>
    <linearGradient id="model-instant-c" x1="50%" x2="50%" y1="0%" y2="100%">
      <stop offset="0%" stop-color="#3F6ABC"/>
      <stop offset="100%" stop-color="#1851BE"/>
    </linearGradient>
    <filter id="model-instant-d" width="107.4%" height="107.4%" x="-3.7%" y="-3.7%" filterUnits="objectBoundingBox">
      <feGaussianBlur in="SourceGraphic" stdDeviation=".65"/>
    </filter>
    <radialGradient id="model-instant-e" cx="61.859%" cy="4.703%" r="100%" fx="61.859%" fy="4.703%">
      <stop offset="0%" stop-color="#FFF"/>
      <stop offset="100%" stop-color="#AEC3EB"/>
    </radialGradient>
  </defs>
  <g fill="none" fill-rule="evenodd" transform="translate(1)">
    <g transform="translate(0 2)">
      <mask id="model-instant-b" fill="#fff">
        <use xlink:href="#model-instant-a"/>
      </mask>
      <path d="M0.5,13.84 C0.5,6.473 6.473,0.5 13.84,0.5 L62.16,0.5 C69.527,0.5 75.5,6.473 75.5,13.84 L75.5,62.16 C75.5,69.527 69.527,75.5 62.16,75.5 L13.84,75.5 C6.473,75.5 0.5,69.527 0.5,62.16 L0.5,13.84 Z" mask="url(#model-instant-b)"/>
      <path d="M0.5,13.84 C0.5,6.473 6.473,0.5 13.84,0.5 L62.16,0.5 C69.527,0.5 75.5,6.473 75.5,13.84 L75.5,62.16 C75.5,69.527 69.527,75.5 62.16,75.5 L13.84,75.5 C6.473,75.5 0.5,69.527 0.5,62.16 L0.5,13.84 Z"/>
      <path d="M0.5,13.84 C0.5,6.473 6.473,0.5 13.84,0.5 L62.16,0.5 C69.527,0.5 75.5,6.473 75.5,13.84 L75.5,62.16 C75.5,69.527 69.527,75.5 62.16,75.5 L13.84,75.5 C6.473,75.5 0.5,69.527 0.5,62.16 L0.5,13.84 Z"/>
      <path fill="url(#model-instant-c)" fill-rule="nonzero" stroke="#FFF" stroke-opacity=".01" stroke-width="1.68" d="M0.5,13.84 C0.5,6.473 6.473,0.5 13.84,0.5 L62.16,0.5 C69.527,0.5 75.5,6.473 75.5,13.84 L75.5,62.16 C75.5,69.527 69.527,75.5 62.16,75.5 L13.84,75.5 C6.473,75.5 0.5,69.527 0.5,62.16 L0.5,13.84 Z" filter="url(#model-instant-d)"/>
      <path fill="url(#model-instant-c)" fill-rule="nonzero" stroke="#FFF" stroke-opacity=".01" stroke-width="1.68" d="M0.5,13.84 C0.5,6.473 6.473,0.5 13.84,0.5 L62.16,0.5 C69.527,0.5 75.5,6.473 75.5,13.84 L75.5,62.16 C75.5,69.527 69.527,75.5 62.16,75.5 L13.84,75.5 C6.473,75.5 0.5,69.527 0.5,62.16 L0.5,13.84 Z"/>
    </g>
    <path fill="url(#model-instant-e)" fill-rule="nonzero" d="M64.90625,58 C66.0625962,58 67,59.0073593 67,60.25 L67,64.75 C67,65.9926407 66.0625962,67 64.90625,67 L2.09375,67 C0.937403805,67 0,65.9926407 0,64.75 L0,60.25 C0,59.0073593 0.937403805,58 2.09375,58 L64.90625,58 Z M54.75,0 L47.2726563,22.3331731 C46.6143039,24.2991938 46.7036222,26.4373667 47.5236719,28.3421875 L47.5236719,28.3421875 L59,55 L31.375,55 L33.5,50.7692308 L42,46.5384615 L33.5,42.3076923 L29.25,33.8461538 L25,42.3076923 L16.5,46.5384615 L25,50.7692308 L27.125,55 L8,55 L22.7421875,21.9920673 C24.2108217,18.7000852 26.6963032,15.9604559 29.8370313,14.1717548 L29.8370313,14.1717548 L54.75,0 Z M35.625,16.9230769 L33.5,21.1538462 L29.25,23.2692308 L33.5,25.3846154 L35.625,29.6153846 L37.75,25.3846154 L42,23.2692308 L37.75,21.1538462 L35.625,16.9230769 Z" transform="translate(14)"/>
  </g>
</svg>
